logos/osb.svg

<?xml version="1.0" encoding="UTF-8"?>
<!DOCTYPE svg PUBLIC "-//W3C//DTD SVG 1.1//EN" "http://www.w3.org/Graphics/SVG/1.1/DTD/svg11.dtd">
<svg xmlns="http://www.w3.org/2000/svg" version="1.1" width="250px" height="257px" style="shape-rendering:geometricPrecision; text-rendering:geometricPrecision; image-rendering:optimizeQuality; fill-rule:evenodd; clip-rule:evenodd" xmlns:xlink="http://www.w3.org/1999/xlink">
<g><path style="opacity:0.964" fill="#88a900" d="M 101.5,-0.5 C 110.167,-0.5 118.833,-0.5 127.5,-0.5C 130.123,2.52898 129.79,5.36231 126.5,8C 99.3864,7.81598 75.053,15.816 53.5,32C 37.7263,47.933 40.393,60.2664 61.5,69C 71.9917,73.8895 81.9917,72.8895 91.5,66C 95.6932,62.6349 99.6932,59.1349 103.5,55.5C 106.167,53.5 108.5,51.1667 110.5,48.5C 121.009,35.4921 133.009,23.9921 146.5,14C 150.177,11.6899 154.011,11.1899 158,12.5C 158.667,14.1667 158.667,15.8333 158,17.5C 143.82,23.5184 132.987,33.1851 125.5,46.5C 122.214,49.4 120.214,53.0666 119.5,57.5C 111.25,74.918 108.583,93.2513 111.5,112.5C 111.311,116.037 111.977,119.37 113.5,122.5C 114.718,127.824 116.718,132.824 119.5,137.5C 118.189,140.811 115.855,143.145 112.5,144.5C 108.562,140.562 103.729,138.229 98,137.5C 86.2122,139.54 75.0456,143.374 64.5,149C 59.8461,153.047 58.1795,158.214 59.5,164.5C 54.9648,165.744 50.2981,165.744 45.5,164.5C 43.4,161.896 41.0666,159.396 38.5,157C 28.4419,150.942 18.9419,144.108 10,136.5C 5.10974,129.723 1.60974,122.39 -0.5,114.5C -0.5,107.5 -0.5,100.5 -0.5,93.5C 10.6898,49.0044 38.0231,19.1711 81.5,4C 88.2327,2.14666 94.8994,0.646662 101.5,-0.5 Z"/></g>
<g><path style="opacity:0.967" fill="#37aac7" d="M 249.5,110.5 C 249.5,120.5 249.5,130.5 249.5,140.5C 246.144,162.388 237.977,182.388 225,200.5C 220.645,202.016 218.145,200.349 217.5,195.5C 232.021,173.755 238.521,149.755 237,123.5C 235.139,102.584 224.972,96.7508 206.5,106C 199.945,109.888 194.778,115.055 191,121.5C 188.056,131.859 188.223,142.193 191.5,152.5C 189.998,158.004 186.665,162.004 181.5,164.5C 170.936,148.61 156.936,136.61 139.5,128.5C 138.621,125.883 138.788,123.216 140,120.5C 144.566,108.137 148.732,95.6366 152.5,83C 150.799,79.7829 148.299,78.9496 145,80.5C 143.117,95.7098 138.617,110.043 131.5,123.5C 131.043,124.298 130.376,124.631 129.5,124.5C 124.284,123.031 118.95,122.365 113.5,122.5C 111.977,119.37 111.311,116.037 111.5,112.5C 121.534,109.149 127.367,102.149 129,91.5C 131.531,82.9885 132.531,74.3219 132,65.5C 129.462,60.4707 125.295,57.804 119.5,57.5C 120.214,53.0666 122.214,49.4 125.5,46.5C 135.324,44.426 144.658,40.926 153.5,36C 187.445,23.7256 213.945,32.8923 233,63.5C 241.431,78.2683 246.931,93.935 249.5,110.5 Z"/></g>
<g><path style="opacity:0.881" fill="#37abc8" d="M 110.5,48.5 C 108.5,51.1667 106.167,53.5 103.5,55.5C 91.1622,55.3335 78.8288,55.5001 66.5,56C 60.9665,58.7544 55.4665,58.9211 50,56.5C 47.3982,48.9877 48.8982,42.4877 54.5,37C 56.1667,36.3333 57.8333,36.3333 59.5,37C 62.5,40 65.5,43 68.5,46C 82.4053,48.1982 96.4053,49.0316 110.5,48.5 Z"/></g>
<g><path style="opacity:0.961" fill="#fe6600" d="M 139.5,128.5 C 138.049,133.951 138.549,139.285 141,144.5C 146.5,151.333 152.667,157.5 159.5,163C 163.281,166.224 167.614,168.39 172.5,169.5C 176.263,169.042 179.263,167.375 181.5,164.5C 186.665,162.004 189.998,158.004 191.5,152.5C 201.326,139.348 208.66,124.848 213.5,109C 221.079,108.206 226.913,111.039 231,117.5C 231.839,120.14 231.339,122.473 229.5,124.5C 225.177,126.703 220.677,128.37 216,129.5C 209.074,141.693 201.907,153.693 194.5,165.5C 191.46,168.914 189.46,172.914 188.5,177.5C 186.268,189.412 184.435,201.412 183,213.5C 179.695,232.475 168.862,244.975 150.5,251C 143.486,253.295 136.486,255.128 129.5,256.5C 119.833,256.5 110.167,256.5 100.5,256.5C 59.3355,249.186 29.8355,226.519 12,188.5C 11.2797,186.888 11.4464,185.388 12.5,184C 15.1667,183.333 17.8333,183.333 20.5,184C 31.618,207.784 49.2847,224.784 73.5,235C 78.4285,236.418 83.4285,236.751 88.5,236C 94.1921,233.794 97.3587,229.627 98,223.5C 99.7175,212.855 98.0508,202.855 93,193.5C 85.3653,185.765 76.1987,180.765 65.5,178.5C 62.3012,177.101 58.9679,176.101 55.5,175.5C 42.3009,172.783 29.3009,169.283 16.5,165C 11.4096,163.042 6.90958,160.208 3,156.5C 0.569782,152.956 1.40312,150.622 5.5,149.5C 17.5143,157.833 30.8477,162.833 45.5,164.5C 50.2981,165.744 54.9648,165.744 59.5,164.5C 79.0259,162.55 96.6925,155.883 112.5,144.5C 115.855,143.145 118.189,140.811 119.5,137.5C 121.129,136.375 122.629,135.041 124,133.5C 126.358,130.778 128.191,127.778 129.5,124.5C 130.376,124.631 131.043,124.298 131.5,123.5C 138.617,110.043 143.117,95.7098 145,80.5C 148.299,78.9496 150.799,79.7829 152.5,83C 148.732,95.6366 144.566,108.137 140,120.5C 138.788,123.216 138.621,125.883 139.5,128.5 Z M 139.5,128.5 C 156.936,136.61 170.936,148.61 181.5,164.5C 179.263,167.375 176.263,169.042 172.5,169.5C 167.614,168.39 163.281,166.224 159.5,163C 152.667,157.5 146.5,151.333 141,144.5C 138.549,139.285 138.049,133.951 139.5,128.5 Z"/></g>
<g><path style="opacity:0.857" fill="#3aaac6" d="M 194.5,165.5 C 198.108,176.264 200.941,187.264 203,198.5C 203.839,205.567 203.506,212.567 202,219.5C 200,220.833 198,220.833 196,219.5C 196.026,208.723 195.026,198.056 193,187.5C 192.156,183.771 190.656,180.437 188.5,177.5C 189.46,172.914 191.46,168.914 194.5,165.5 Z"/></g>
<g><path style="opacity:0.877" fill="#88a900" d="M 55.5,175.5 C 58.9679,176.101 62.3012,177.101 65.5,178.5C 71.4345,188.034 76.6012,198.034 81,208.5C 85.8951,211.218 89.0618,215.218 90.5,220.5C 89.4412,224.729 86.7746,227.562 82.5,229C 78.8333,229.667 75.1667,229.667 71.5,229C 70.0203,227.701 69.3536,226.034 69.5,224C 70.2922,219.955 71.2922,215.955 72.5,212C 68.0625,199.152 62.3958,186.985 55.5,175.5 Z"/></g>
</svg>

<svg xmlns="http://www.w3.org/2000/svg" width="250" height="257" style="shape-rendering:geometricPrecision;text-rendering:geometricPrecision;image-rendering:optimizeQuality;fill-rule:evenodd;clip-rule:evenodd"><path style="opacity:.964" fill="#88a900" d="M101.5-.5h26c2.623 3.029 2.29 5.862-1 8.5-27.114-.184-51.447 7.816-73 24-15.774 15.933-13.107 28.266 8 37 10.492 4.89 20.492 3.89 30-3a185.33 185.33 0 0 0 12-10.5c2.667-2 5-4.333 7-7a196.226 196.226 0 0 1 36-34.5c3.677-2.31 7.511-2.81 11.5-1.5.667 1.667.667 3.333 0 5-14.18 6.018-25.013 15.685-32.5 29-3.286 2.9-5.286 6.567-6 11-8.25 17.418-10.917 35.751-8 55-.189 3.537.477 6.87 2 10a51.712 51.712 0 0 0 6 15c-1.311 3.311-3.645 5.645-7 7-3.938-3.938-8.771-6.271-14.5-7A110.9 110.9 0 0 0 64.5 149c-4.654 4.047-6.32 9.214-5 15.5-4.535 1.244-9.202 1.244-14 0a72.711 72.711 0 0 0-7-7.5A215.445 215.445 0 0 1 10 136.5c-4.89-6.777-8.39-14.11-10.5-22v-21C10.69 49.004 38.023 19.171 81.5 4a212.206 212.206 0 0 1 20-4.5z"/><path style="opacity:.967" fill="#37aac7" d="M249.5 110.5v30c-3.356 21.888-11.523 41.888-24.5 60-4.355 1.516-6.855-.151-7.5-5 14.521-21.745 21.021-45.745 19.5-72-1.861-20.916-12.028-26.75-30.5-17.5-6.555 3.888-11.722 9.055-15.5 15.5-2.944 10.359-2.777 20.693.5 31-1.502 5.504-4.835 9.504-10 12-10.564-15.89-24.564-27.89-42-36-.879-2.617-.712-5.284.5-8A617.574 617.574 0 0 0 152.5 83c-1.701-3.217-4.201-4.05-7.5-2.5-1.883 15.21-6.383 29.543-13.5 43-.457.798-1.124 1.131-2 1a53.78 53.78 0 0 0-16-2c-1.523-3.13-2.189-6.463-2-10 10.034-3.351 15.867-10.351 17.5-21 2.531-8.511 3.531-17.178 3-26-2.538-5.03-6.705-7.696-12.5-8 .714-4.433 2.714-8.1 6-11 9.824-2.074 19.158-5.574 28-10.5 33.945-12.274 60.445-3.108 79.5 27.5 8.431 14.768 13.931 30.435 16.5 47z"/><path style="opacity:.881" fill="#37abc8" d="M110.5 48.5c-2 2.667-4.333 5-7 7-12.338-.166-24.671 0-37 .5-5.533 2.754-11.033 2.921-16.5.5-2.602-7.512-1.102-14.012 4.5-19.5 1.667-.667 3.333-.667 5 0l9 9a216.169 216.169 0 0 0 42 2.5z"/><path style="opacity:.961" fill="#fe6600" d="M139.5 128.5c-1.451 5.451-.951 10.785 1.5 16 5.5 6.833 11.667 13 18.5 18.5 3.781 3.224 8.114 5.39 13 6.5 3.763-.458 6.763-2.125 9-5 5.165-2.496 8.498-6.496 10-12 9.826-13.152 17.16-27.652 22-43.5 7.579-.794 13.413 2.039 17.5 8.5.839 2.64.339 4.973-1.5 7a61.393 61.393 0 0 1-13.5 5 959.525 959.525 0 0 1-21.5 36c-3.04 3.414-5.04 7.414-6 12a542.96 542.96 0 0 0-5.5 36c-3.305 18.975-14.138 31.475-32.5 37.5a177.489 177.489 0 0 1-21 5.5h-29c-41.164-7.314-70.665-29.981-88.5-68-.72-1.612-.554-3.112.5-4.5a16.242 16.242 0 0 1 8 0c11.118 23.784 28.785 40.784 53 51a35.064 35.064 0 0 0 15 1c5.692-2.206 8.859-6.373 9.5-12.5 1.718-10.645.05-20.645-5-30-7.635-7.735-16.801-12.735-27.5-15a43.326 43.326 0 0 0-10-3 336.85 336.85 0 0 1-39-10.5c-5.09-1.958-9.59-4.792-13.5-8.5-2.43-3.544-1.597-5.878 2.5-7 12.014 8.333 25.348 13.333 40 15 4.798 1.244 9.465 1.244 14 0 19.526-1.95 37.192-8.617 53-20 3.355-1.355 5.689-3.689 7-7a25.14 25.14 0 0 0 4.5-4 31.515 31.515 0 0 0 5.5-9c.876.131 1.543-.202 2-1 7.117-13.457 11.617-27.79 13.5-43 3.299-1.55 5.799-.717 7.5 2.5a617.574 617.574 0 0 1-12.5 37.5c-1.212 2.716-1.379 5.383-.5 8zm0 0c17.436 8.11 31.436 20.11 42 36-2.237 2.875-5.237 4.542-9 5-4.886-1.11-9.219-3.276-13-6.5-6.833-5.5-13-11.667-18.5-18.5-2.451-5.215-2.951-10.549-1.5-16z"/><path style="opacity:.857" fill="#3aaac6" d="M194.5 165.5a239.572 239.572 0 0 1 8.5 33 63.17 63.17 0 0 1-1 21c-2 1.333-4 1.333-6 0a167.242 167.242 0 0 0-3-32c-.844-3.729-2.344-7.063-4.5-10 .96-4.586 2.96-8.586 6-12z"/><path style="opacity:.877" fill="#88a900" d="M55.5 175.5a43.326 43.326 0 0 1 10 3 212.415 212.415 0 0 1 15.5 30c4.895 2.718 8.062 6.718 9.5 12-1.059 4.229-3.725 7.062-8 8.5a30.485 30.485 0 0 1-11 0c-1.48-1.299-2.146-2.966-2-5a120.074 120.074 0 0 1 3-12c-4.438-12.848-10.104-25.015-17-36.5z"/></svg>
